svg/icon/eca.svg

<svg xmlns="http://www.w3.org/2000/svg" xmlns:xlink="http://www.w3.org/1999/xlink" width="32" height="32" viewBox="0 0 32 32"><defs><linearGradient id="eca-c" x1="50%" x2="50%" y1="0%" y2="100%"><stop offset="0%" stop-color="#FFF" stop-opacity=".5"/><stop offset="100%" stop-opacity=".5"/></linearGradient><circle id="eca-b" cx="16" cy="15" r="15"/><filter id="eca-a" width="111.7%" height="111.7%" x="-5.8%" y="-4.2%" filterUnits="objectBoundingBox"><feOffset dy=".5" in="SourceAlpha" result="shadowOffsetOuter1"/><feGaussianBlur in="shadowOffsetOuter1" result="shadowBlurOuter1" stdDeviation=".5"/><feComposite in="shadowBlurOuter1" in2="SourceAlpha" operator="out" result="shadowBlurOuter1"/><feColorMatrix in="shadowBlurOuter1" values="0 0 0 0 0 0 0 0 0 0 0 0 0 0 0 0 0 0 0.199473505 0"/></filter><path id="eca-e" d="M15.9990499,24.612237 C16.2396035,24.6132986 16.4343522,24.8114106 16.4353958,25.0561185 C16.4353958,25.3012675 16.2400371,25.5 15.9990499,25.5 C15.7580627,25.5 15.562704,25.3012675 15.562704,25.0561185 C15.562704,24.8109695 15.7580627,24.612237 15.9990499,24.612237 Z M7.21877961,10.3576315 C7.0095081,10.2344084 6.93788433,9.96204818 7.0587226,9.74899043 C7.14733323,9.5927553 7.31975732,9.50623046 7.49555104,9.52978376 C7.67134476,9.55333706 7.81586571,9.68232701 7.86168816,9.85657383 C7.90751061,10.0308207 7.84560467,10.2159868 7.70485233,10.3256836 C7.56409998,10.4353804 7.37223829,10.4479908 7.21877961,10.3576315 Z M7.21877961,19.6520064 C7.42779365,19.5303952 7.694108,19.6031004 7.81518252,19.8148276 C7.93541307,20.0271962 7.86370872,20.2985019 7.65500007,20.4209053 C7.44629143,20.5433087 7.17955903,20.4704894 7.05913878,20.258232 C6.93871852,20.0459746 7.01018042,19.7746028 7.21877961,19.6520064 Z M24.7793202,10.3576315 C24.5703061,10.4792427 24.3039918,10.4065374 24.1829173,10.1948103 C24.0936409,10.0386896 24.1057823,9.84319937 24.2136641,9.69975025 C24.321546,9.55630113 24.5038494,9.49324065 24.6753298,9.54005572 C24.8468102,9.58687078 24.9735807,9.73431009 24.9963638,9.91343143 C25.0191469,10.0925528 24.9334403,10.2679593 24.7793202,10.3576315 Z M15.9990499,5.38770916 C15.7610444,5.38347942 15.5702894,5.1859804 15.5703258,4.94382765 C15.5703528,4.76359466 15.6775087,4.60127046 15.8414976,4.53304519 C16.0054865,4.46481993 16.1937494,4.50423937 16.3179212,4.6328012 C16.4420929,4.76136303 16.47752,4.95354198 16.4075739,5.11913496 C16.3376279,5.28472794 16.1761961,5.39085734 15.9990499,5.38770916 Z M23.7999237,19.5822259 C23.5809634,19.9683757 23.6752692,20.4596262 24.0209548,20.7336042 L16.8698363,24.9340026 C16.8088108,24.4929618 16.4378298,24.1649737 16.0000026,24.1649737 C15.5621754,24.1649737 15.1911945,24.4929618 15.130169,24.9340026 L7.97714497,20.7336042 C8.32238437,20.4595783 8.41649768,19.9687374 8.19779603,19.5828151 C7.97909438,19.1968929 7.51438117,19.0337709 7.10826406,19.2003715 L7.10826406,10.7995746 C7.51372407,10.9652699 7.97726024,10.802606 8.19605774,10.4178464 C8.41485525,10.0330869 8.32238298,9.54322792 7.97905041,9.26828031 L15.130169,5.06788187 C15.1911945,5.50892266 15.5621754,5.83691076 16.0000026,5.83691076 C16.4378298,5.83691076 16.8088108,5.50892266 16.8698363,5.06788187 L24.0228603,9.26634197 C23.6776209,9.5403678 23.5835076,10.0312087 23.8022092,10.417131 C24.0209109,10.8030533 24.4856241,10.9661753 24.8917412,10.7995746 L24.8917412,19.1945565 C24.4836988,19.0283922 24.0176968,19.1938546 23.7999237,19.5822259 Z M17.6872703,18.2951634 C16.0783641,19.241776 14.0277362,18.8145746 12.9141416,17.3007912 L17.6320125,14.5367081 L19.2402044,13.592733 L20.0023806,13.1430364 L20.0462057,13.1217146 L23.2854548,11.2163193 C23.4854826,11.0988694 23.5551896,10.8394395 23.4417009,10.6348151 C23.3870496,10.53612 23.2955766,10.4640205 23.1879832,10.4348334 C23.0803898,10.4056463 22.9657718,10.4218392 22.8700687,10.4797473 L20.488268,11.8850491 C19.5614967,10.5078083 18.0908009,9.60972698 16.4601665,9.42528644 L16.4601665,6.69609354 C16.4601665,6.45308559 16.266514,6.25608872 16.0276315,6.25608872 C15.788749,6.25608872 15.5950965,6.45308559 15.5950965,6.69609354 L15.5950965,9.40008792 C14.7076585,9.44300542 13.8432388,9.701559 13.0741986,10.154105 C12.3848517,10.5577661 11.7873983,11.1054209 11.3211932,11.7609948 L9.1375583,10.4797473 C8.9376126,10.3625254 8.6821107,10.4323856 8.56687884,10.6357843 C8.45164697,10.839183 8.52032111,11.0990974 8.7202668,11.2163193 L10.8867528,12.4898134 C10.4233483,13.4167581 10.2190261,14.4553419 10.2960662,15.4923133 L10.4980429,16.6359381 C10.5872078,16.946028 10.7012833,17.2481355 10.8391168,17.5392079 L8.7202668,18.7836269 C8.51979493,18.9019193 8.45154735,19.1631354 8.56783156,19.3670694 C8.68411577,19.5710034 8.94089731,19.6404296 9.14136918,19.5221371 L11.2678409,18.2757799 C12.2653154,19.7225188 13.8589027,20.6251976 15.5931911,20.7258508 L15.5931911,23.3038526 C15.5931911,23.5468605 15.7868436,23.7438574 16.0257261,23.7438574 C16.2646086,23.7438574 16.4582611,23.5468605 16.4582611,23.3038526 L16.4582611,20.704529 C17.2349735,20.6247518 17.9856352,20.3754992 18.659045,19.9737721 C19.4144397,19.5259696 20.0539433,18.9013375 20.5244713,18.1517257 L22.8605415,19.5201988 C23.060631,19.6339101 23.313401,19.5630673 23.4280105,19.3611568 C23.54262,19.1592462 23.4765746,18.9011313 23.2797384,18.7816885 L20.9284247,17.4015853 C20.9341411,17.3880169 20.9474791,17.3725101 20.9474791,17.3570033 C21.6620194,15.7132848 19.7508624,15.0077265 19.3259492,16.2734672 C19.0388613,17.1272529 18.456472,17.8457672 17.6872703,18.2951634 Z M24.7793202,19.6520064 C24.8796934,19.7108115 24.9529641,19.8078013 24.9829869,19.9216039 C25.0130097,20.0354065 24.9973207,20.1566827 24.9393772,20.2587091 C24.8188621,20.4709108 24.5520972,20.5436068 24.3434433,20.4211069 C24.1347893,20.298607 24.0632062,20.0272682 24.1835316,19.8149552 C24.303857,19.6026422 24.5705569,19.5296995 24.7793202,19.6520064 Z M12.2834407,15.5872923 C12.2396156,13.9203137 12.4377814,12.7573053 14.0173917,11.828837 C15.325383,11.0605627 16.9625039,11.185948 18.1426706,12.1447876 L12.2834407,15.5872923 Z"/><filter id="eca-d" width="119.4%" height="116.7%" x="-9.7%" y="-6%" filterUnits="objectBoundingBox"><feOffset dy=".5" in="SourceAlpha" result="shadowOffsetOuter1"/><feGaussianBlur in="shadowOffsetOuter1" result="shadowBlurOuter1" stdDeviation=".5"/><feColorMatrix in="shadowBlurOuter1" values="0 0 0 0 0 0 0 0 0 0 0 0 0 0 0 0 0 0 0.204257246 0"/></filter></defs><g fill="none" fill-rule="evenodd"><g fill-rule="nonzero"><use fill="#000" filter="url(#eca-a)" xlink:href="#eca-b"/><use fill="#AA15DD" fill-rule="evenodd" xlink:href="#eca-b"/><use fill="url(#eca-c)" fill-rule="evenodd" style="mix-blend-mode:soft-light" xlink:href="#eca-b"/><circle cx="16" cy="15" r="14.5" stroke="#000" stroke-linejoin="square" stroke-opacity=".097"/></g><g fill-rule="nonzero"><use fill="#000" filter="url(#eca-d)" xlink:href="#eca-e"/><use fill="#FFF" fill-rule="evenodd" xlink:href="#eca-e"/></g></g></svg>

<svg xmlns="http://www.w3.org/2000/svg" xmlns:xlink="http://www.w3.org/1999/xlink" width="32" height="32" viewBox="0 0 32 32"><defs><linearGradient id="c" x1="50%" x2="50%" y1="0%" y2="100%"><stop offset="0%" stop-color="#FFF" stop-opacity=".5"/><stop offset="100%" stop-opacity=".5"/></linearGradient><circle id="b" cx="16" cy="15" r="15"/><filter id="a" width="111.7%" height="111.7%" x="-5.8%" y="-4.2%" filterUnits="objectBoundingBox"><feOffset dy=".5" in="SourceAlpha" result="shadowOffsetOuter1"/><feGaussianBlur in="shadowOffsetOuter1" result="shadowBlurOuter1" stdDeviation=".5"/><feComposite in="shadowBlurOuter1" in2="SourceAlpha" operator="out" result="shadowBlurOuter1"/><feColorMatrix in="shadowBlurOuter1" values="0 0 0 0 0 0 0 0 0 0 0 0 0 0 0 0 0 0 0.199473505 0"/></filter><path id="e" d="M15.999 24.612c.24.001.435.2.436.444A.44.44 0 0 1 16 25.5a.44.44 0 0 1-.436-.444.44.44 0 0 1 .436-.444zm-8.78-14.254a.45.45 0 0 1-.16-.609.436.436 0 0 1 .803.108.45.45 0 0 1-.157.469.432.432 0 0 1-.486.032zm0 9.294a.434.434 0 0 1 .596.163.448.448 0 0 1-.16.606.432.432 0 0 1-.596-.163.448.448 0 0 1 .16-.606zm17.56-9.294a.434.434 0 0 1-.596-.163.452.452 0 0 1 .03-.495.434.434 0 0 1 .462-.16.448.448 0 0 1 .104.818zM16 5.388a.44.44 0 0 1-.429-.444c0-.18.108-.343.271-.411a.431.431 0 0 1 .477.1.45.45 0 0 1 .09.486.436.436 0 0 1-.409.269zm7.8 14.194a.904.904 0 0 0 .222 1.152l-7.151 4.2a.883.883 0 0 0-.87-.769.883.883 0 0 0-.87.769l-7.153-4.2a.904.904 0 0 0 .22-1.151.871.871 0 0 0-1.089-.383v-8.4a.871.871 0 0 0 1.088-.382.904.904 0 0 0-.217-1.15l7.151-4.2a.883.883 0 0 0 .87.769.883.883 0 0 0 .87-.77l7.153 4.2a.904.904 0 0 0-.22 1.15.871.871 0 0 0 1.089.383v8.395a.873.873 0 0 0-1.092.387zm-6.112-1.287a3.628 3.628 0 0 1-4.773-.994l4.718-2.764 1.608-.944.762-.45.044-.021 3.24-1.906c.2-.117.27-.377.156-.581a.407.407 0 0 0-.572-.155l-2.382 1.405a5.622 5.622 0 0 0-4.028-2.46V6.696a.436.436 0 0 0-.432-.44.436.436 0 0 0-.433.44V9.4a5.493 5.493 0 0 0-2.52.754 5.665 5.665 0 0 0-1.754 1.607L9.138 10.48a.414.414 0 0 0-.571.156.43.43 0 0 0 .153.58l2.167 1.274a5.763 5.763 0 0 0-.59 3.002l.201 1.144c.09.31.203.612.341.903L8.72 18.784a.43.43 0 0 0-.152.583.416.416 0 0 0 .573.155l2.127-1.246a5.656 5.656 0 0 0 4.325 2.45v2.578c0 .243.194.44.433.44a.436.436 0 0 0 .432-.44v-2.6a5.365 5.365 0 0 0 2.201-.73 5.54 5.54 0 0 0 1.865-1.822l2.337 1.368c.2.114.452.043.567-.159a.43.43 0 0 0-.148-.58l-2.352-1.38c.006-.013.02-.028.02-.044.714-1.644-1.197-2.35-1.622-1.084a3.706 3.706 0 0 1-1.639 2.022zm7.092 1.357a.45.45 0 0 1 .16.607.432.432 0 0 1-.596.162.448.448 0 0 1-.16-.606.432.432 0 0 1 .596-.163zm-12.496-4.065c-.043-1.667.155-2.83 1.734-3.758a3.62 3.62 0 0 1 4.126.316l-5.86 3.442z"/><filter id="d" width="119.4%" height="116.7%" x="-9.7%" y="-6%" filterUnits="objectBoundingBox"><feOffset dy=".5" in="SourceAlpha" result="shadowOffsetOuter1"/><feGaussianBlur in="shadowOffsetOuter1" result="shadowBlurOuter1" stdDeviation=".5"/><feColorMatrix in="shadowBlurOuter1" values="0 0 0 0 0 0 0 0 0 0 0 0 0 0 0 0 0 0 0.204257246 0"/></filter></defs><g fill="none"><use fill="#000" filter="url(#a)" xlink:href="#b"/><use fill="#AA15DD" fill-rule="evenodd" xlink:href="#b"/><use fill="url(#c)" fill-rule="evenodd" style="mix-blend-mode:soft-light" xlink:href="#b"/><circle cx="16" cy="15" r="14.5" stroke="#000" stroke-linejoin="square" stroke-opacity=".097"/><use fill="#000" filter="url(#d)" xlink:href="#e"/><use fill="#FFF" fill-rule="evenodd" xlink:href="#e"/></g></svg>
